X: 31626
T: Papa Stoor Bridal March
R: slip jig
M: 9/8
K: Gmajor
A|d>Ad fga gfe|d>Ad fga gfe|d>Ad fga gfe|d>Ad fga gfe|
ecA ecA f2e|ecA ecA f2e|ecA ecA f2e|ecA ecA f2e|
cBA FED E2A|dBA GFE D2c|dBA FED E2A|dBA GFE D2||

